!!!SOCIAL_FUNCTION:	deer dance songs
!!!PDT:	1932
!!!OTL: No_95_The_Deer_is_Dancing.krn
!!!REG: Southwest
!!!LANG: Non-Tone
!!!LING_GROUP: Yuman-Cochimi
**kern
*staff1
=1-
*clefF4
*k[b-]
*M3/4
2r
8.r
16F\
=2
12F\L
12A\
12A\J
16A\LL
16A\
16A\
16G\JJ
8A\
8r
=3||
*M2/4
8.c\L
16A\Jk
8A\
8r
=4
8.A\L
16G\Jk
12G\L
12G\
12G\J
=5||
*M3/4
12G\L
12F\
12F\J
4F\
4r
=6
16A\LL
16G\
16F\
16A\JJ
16A\LL
16G\
16G\
16F\JJ
8F\
8r
=7||
*M2/4
8.F\L
16F\Jk
8F\
8r
=8
8.F\L
16F\Jk
8.F\L
16F\Jk
=9
12F\L
12F\
12F\J
4F\
=10
8.A\L
16A\Jk
8.G\L
16F\Jk
=11
4F\
4r
=12
12A\L
12A\
12A\J
12A\L
12G\
12F\J
=13
4F\
4r
==
*-
